X: 49
T: Akşam Dönüşü Geçtim
C: Ahmet Muhtar Paşa
O: Turkey
F: http://compmusic.upf.edu/node/140
N: huzzam--sarki--curcuna--aksam_donusu--udi_marko_colakoglu
N: makam= huzzam
N: form= sarki
N: usul= curcuna = 10/8
M: 10/8
L: 1/16
K: C _1/4B _3/4e ^3/4f 
Q: 1/4=132
%%MIDI tuningsystem comma53
z8-z2de fggf e2{f}ed  | d8-d2d2 {f}edcB c4  | \
w:  Ak  |  şam   | 
z4 {a}g2fe d2d4{e}c2 _1/4e4  | 
w:  *  dö nü *  *  şü  *  geç  | 
{d}c2B^3/4A B6c2 BABc B2c2  | d4 c2{c}d4d4c2 B^1/4AG2  | \
w:  *  tim  *  *  *  SAZ  |  *  o  *  es rar lı   | 
g4 fedc d2ag2fg6  | 
w:  ba ğın *  *  *  *  dan    | 
gf2=e f6f_3/4e2de6  | ed2c d6dc2Bc6  | \
w:   |   | 
z4 c2d4d4{e}c2 B^1/4AG2  | 
w:  o  es rar *  lı   | 
g4 fed2 {f}edd8-d2  | defg a2g2 f2e2 d2d2 {e}d2c2  | \
w:  ba ğın *  *  *  *  *  dan    |  SAZ  | 
{d'}c'2_b2 a2g2 f2fe2dde fga2  | 
w:   | 
a6_b4a2 {b}gfg4a2  | {a}g2fe {f}e2g4fe dcd6  | \
w:  Bir  *  gül   |  *  ko *  *  *  *  pa rıp   | 
a2g2 a2{a}g2 f2e2 {a}g2f2 e2d2  | 
w:  kal *  *  *  bi *  me  *  *  tak  | 
d2{f}ed f2{g}fe d2c2 B^AB3cBc  | d4 c2d4d8ed  | \
w:  tım  *  *  *  *  *  *  *  *  *  *  *  *  SAZ  |  *  ya na ğın  | 
edcB c4 dcdc B^1/4AB6  | 
w:  dan    | 
cBAG A6BA GAG4-Gz  | d2e2 f2g4{g}f2 e2d2 c2B^A  | 
w:   |  tak *  *  *  *  tım   | 
B4 c2d4fe dcc4d2  | c2B^A B16  | defg a2g2 f2e2 d2d2 {e}d2c2  | 
w:  *  ya na ğın  |  dan    |  SAZ  | 
{d'}c'2_b2 a2g2 f2fe2dde fga2  | a6_b4a2 {b}gfg4a2  | \
w:   |  Bir  *  gül   | 
{a}g2fe {f}e2g4fe dcd6  | 
w:  *  ko *  *  *  *  pa rıp   | 
a2g2 a2{a}g2 f2e2 {a}g2f2 e2d2  | \
w:  kal *  *  *  bi *  me  *  *  tak  | 
d2{f}ed f2{g}fe d2c2 B^AB3cBc  | 
w:  tım  *  *  *  *  *  *  *  *  *  *  *  *  SAZ  | 
d4 c2d4d8ed  | edcB c4 dcdc B^1/4AB6  | \
w:  *  ya na ğın  |  dan    | 
cBAG A6BA GAG4-Gz  | 
w:   | 
d2e2 f2g4{g}f2 e2d2 c2B^A  | B4 c2d4fe dcc4d2  | \
w:  tak *  *  *  *  tım   |  *  ya na ğın  | 
c2B^A B16  | 
w:  dan    | 
B4 c'2b2 ^a2g2 f2_1/4e2 d2c2  | B4 c'2b2 ^a2g2 {a}gab6  | \
w:  SAZ  |   | 
c'3b ^a2g4g3f^3/4e2 f2g2  | 
w:  Hic *  *  *  râ  | 
^a2g2 c'2b2 a2g2 {a}gff6  | g2f2 g2g2 ^1/4f2f2 =e2e4d2  | \
w:  nı  *  *  te *  sel  |  lî  *  *  di *  ye  *  iç  | 
d2=ef g2=fe d2c2 B^AB6  | 
w:  tim   | 
z4 c2d4=e2 {f}ede6  | f2{g}f=e f6g2 {a}gfg6  | \
w:  du da ğın  |  dan    | 
a2{b}ag a6b2 {c'}b^ab4z2  | 
w:   | 
b2d'2 c'2_2/4b2 ^1/4a2{a}g4f2 e2d2  | \
w:  iç *  *  *  *  *  tim   | 
a4 g2g2 f2e2 {a}g2f2 e2ed  | d16-d4  | 
w:  *  du da *  ğın  |  dan    | 
defg a2g2 f2e2 d2d2 {e}d2c2  | {d'}c'2_b2 a2g2 f2fe2dde fga2  | 
w:  SAZ  |   | 
a6_b4a2 {b}gfg4a2  | {a}g2fe {f}e2g4fe dcd6  | \
w:  Bir  *  gül   |  *  ko *  *  *  *  pa rıp   | 
a2g2 a2{a}g2 f2e2 {a}g2f2 e2d2  | 
w:  kal *  *  *  bi *  me  *  *  tak  | 
d2{f}ed f2{g}fe d2c2 B^AB3cBc  | d4 c2d4d8ed  | \
w:  tım  *  *  *  *  *  *  *  *  *  *  *  *  SAZ  |  *  ya na ğın  | 
edcB c4 dcdc B^1/4AB6  | 
w:  dan    | 
cBAG A6BA GAG4-Gz  | d2e2 f2g4{g}f2 e2d2 c2B^A  | 
w:   |  tak *  *  *  *  tım   | 
B4 c2d4fe dcc4d2  | c2B^A B6c2 BAB6  | |


